X:1
T:Jelipak to pravda
C:traditionell
S:Sammlung Josef Reszny
A:Prachinerland
Z:abc transcription Simon Wascher
F:http://simonwascher.info/
M:2/4
L:1/8
K:Gm
GA Bc | d2 d2 | ec d2 | cB A2- |
A4 | dc BA | G2 D2 ||
GB d2 | cB A2- | A4 | dc BA |
G2 A2 | BA G2 | BA G2 | G4- | G4 |]
